!!!COM: Bach, Johann Sebastian
!!!CDT: 1685/3//-1750/7/28/
!!!OTL@@DE: Von Gott will ich nicht lassen
!!!AGN: 4-Part Chorale
!!!SCT: BH 191
!!!SCT: BWV 73
**harm	**root	**kern	**kern	**kern	**kern
!	!	!bass	!tenor	!alto	!soprno
*	*Iorgan	*Iorgan	*Iorgan	*Iorgan	*Iorgan
*	*	*clefF4	*clefF4	*clefG2	*clefG2
*k[]	*k[]	*k[]	*k[]	*k[]	*k[]
*a:	*a:	*a:	*a:	*a:	*a:
*M4/4	*M4/4	*M4/4	*M4/4	*M4/4	*M4/4
*met(c)	*met(c)	*met(c)	*met(c)	*met(c)	*met(c)
*MM60	*MM60	*MM60	*MM60	*MM60	*MM60
*>[A,A,B]	*>[A,A,B]	*>[A,A,B]	*>[A,A,B]	*>[A,A,B]	*>[A,A,B]
*>A	*>A	*>A	*>A	*>A	*>A
i	4AA	4AA	4A	4c	4e
=1	=1	=1	=1	=1	=1
i	4AA	4A	4c	4e	4a
Vb	4EE	4G#	4B	4e	4b
i	4AA	4A	4A	4e	4cc
Vb/-VII	4DD	4F#	4A	4d	4dd
=2	=2	=2	=2	=2	=2
-VII	4GG	4G	4G	8d	2b
.	.	.	.	8e	.
Vb/V	4BB	4D#	4F#	4f#	.
v;	4EE;	4E;	4B;	4e;	4g;
III	4CC	4C	4c	4e	4g
=3	=3	=3	=3	=3	=3
VI	4FF	4Fn	4A	4c	4a
iv	4DD	4D	4F	4d	4a
V7b	2EE	4GG#	4E	8d	4b
.	.	.	.	8fn	.
.	.	4GG#	4E	8e	4b
.	.	.	.	8d	.
=4	=4	=4	=4	=4	=4
i;	2.AA;	2.AA;	2.A;	2.c;	2.e;
=:|!	=:|!	=:|!	=:|!	=:|!	=:|!
*>B	*>B	*>B	*>B	*>B	*>B
i	4AA	4A	4c	4a	4ee
=5	=5	=5	=5	=5	=5
iv	4DD	4F	4d	4a	4dd
iv7	4DD	4D	4f	4a	4cc
IIIc	4CC	4G	4e	4g	4cc
-VII	4GG	4GG	4d	4g	4b
=6	=6	=6	=6	=6	=6
III;	2.CC;	2.C;	2.e;	2.g;	2.cc;
-VII	4GG	4G	4d	4g	4b
!!linebreak: 2
=7	=7	=7	=7	=7	=7
IIIb	4CC	4E	4.c	4g	4cc
iiob	4BB	4D	.	4f	4dd
.	.	.	[8B	.	.
III	4CC	4C	8B]	4g	4ee
.	.	.	8G	.	.
i	4AA	4AA	4c	8a	4ee
.	.	.	.	8g	.
=8	=8	=8	=8	=8	=8
V7/-VII	2DD	2D	4c	8f#	2dd
.	.	.	.	8e	.
.	.	.	8B	4f#	.
.	.	.	8A	.	.
-VII;	4GG;	4GG;	4G;	4d;	4b;
-VII	4GG	4G	4d	4g	4b
=9	=9	=9	=9	=9	=9
IIIb	4CC	4E	4c	4g	4cc
III7	4CC	4C	4G	4e	4b
VI	4FF	4F	8A	4c	4a
.	.	.	8B	.	.
VI7	4FF	4E	4c	[4f	4a
=10	=10	=10	=10	=10	=10
iiob	4BB	4D	4d	8f]	4b
.	.	.	.	8e	.
vii7/V	4DD#	4D#	4c	4f#	4a
v;	4EE;	4E;	4B;	4e;	4g;
V7/III	4GG	4BB	4G	4d	4fn
=11	=11	=11	=11	=11	=11
III	4CC	4C	4G	4c	4e
ivb	4DD	4F	8A	4d	4a
.	.	.	8B	.	.
ic	4AA	4E	8c	4e	4a
.	.	.	16B	.	.
.	.	.	16A	.	.
V	4EE	4EE	4B	4e	4g#
=12	=12	=12	=12	=12	=12
I;	2.AA;	2.AA;	2.c#;	2.e;	2.a;
==	==	==	==	==	==
*-	*-	*-	*-	*-	*-
!!chor2scor: -l 2 -s 0.6 -o %b.pmx
!!!YEC: Copyright 2001 by Craig Stuart Sapp
!!!license: GNU General Public License (http://www.gnu.org/copyleft/gpl.html)
!!!SMA: 371 Bach Chorales, edited by Ludwig Erk, C.F. Peters
!!!PDT: 1850, 1865
!!!ONB: Harmony and Root analysis done manually by Craig Sapp
